%
O0001(ESIME LOGO TOOL 2)
(DATE=DD-MM-YY - 29-11-22 TIME=HH:MM - 12:23)
(MCX FILE - D:\DOCUMENTOS\CNC\MASTERCAM\ESCUDO - OPTIMIZADO.MCX-5)
(NC FILE - D:\DOCUMENTOS\CNC\MASTERCAM\ESIME LOGO TOOL 2.NC)
(MATERIAL - PLASTIC MM - ACRYLIC)
( T2 | FRESA PLANA 3MM | H2 )
G21
G0 G17 G40 G49 G80 G90
( DESBASTE LETRAS )
T2 M6
G0 G90 G54 X35.1 Y72.9 A0. S2000 M3
G43 H2 Z2.
G1 Z-2.8 F320.
X36.5
Y87.641
G3 X22. Y81.899 I8.5 J-42.641
G1 Y72.9
X23.4
Y81.156
X24.158 Y81.588
G2 X26.439 Y82.796 I20.842 J-36.588
G1 X28.6 Y83.858
Y72.9
X29.9
Y84.322
X30.898 Y84.676
G2 X33.179 Y85.415 I14.102 J-39.676
G1 X35.1 Y85.977
Y72.9
G0 Z2.
Y65.7
G1 Z-2.8
Y56.1
X29.9
Y65.7
X22.
Y54.7
X23.4
Y64.3
X28.6
Y54.7
X36.5
Y65.7
X35.1
G0 Z2.
X36.5 Y47.5
G1 Z-2.8
X22.
Y46.1
X36.5
Y47.5
G0 Z2.
X24.193 Y25.8
G1 Z-2.8
X31.758 Y31.238
X32.011 Y31.613
X24.251 Y37.05
X25.185 Y36.675
X29.182 Y33.862
X31.575 Y31.8
X31.592 Y31.425
X30.172 Y30.113
X28.375 Y28.8
X24.193 Y25.8
X26.446 Y25.7
X35.296 Y31.6
X26.446 Y37.5
X36.5
Y38.9
X22.
Y36.803
X29.804 Y31.6
X22. Y26.397
Y24.3
X36.5
Y25.7
X26.446
G0 Z2.
X22. Y17.1
G1 Z-2.8
Y8.101
G3 X23.4 Y7.265 I23. J36.899
G1 Y15.7
X28.6
Y4.732
G3 X29.9 Y4.226 I16.4 J40.268
G1 Y15.7
X35.1
Y2.662
G3 X36.5 Y2.359 I9.9 J42.338
G1 Y17.1
X22.
G0 Z2.
X35.1 Y72.9
G1 Z-3.
X36.5
Y87.641
G3 X22. Y81.899 I8.5 J-42.641
G1 Y72.9
X23.4
Y81.156
X24.158 Y81.588
G2 X26.439 Y82.796 I20.842 J-36.588
G1 X28.6 Y83.858
Y72.9
X29.9
Y84.322
X30.898 Y84.676
G2 X33.179 Y85.415 I14.102 J-39.676
G1 X35.1 Y85.977
Y72.9
G0 Z2.
Y65.7
G1 Z-3.
Y56.1
X29.9
Y65.7
X22.
Y54.7
X23.4
Y64.3
X28.6
Y54.7
X36.5
Y65.7
X35.1
G0 Z2.
X36.5 Y47.5
G1 Z-3.
X22.
Y46.1
X36.5
Y47.5
G0 Z2.
X24.193 Y25.8
G1 Z-3.
X31.758 Y31.238
X32.011 Y31.613
X24.251 Y37.05
X25.185 Y36.675
X29.182 Y33.862
X31.575 Y31.8
X31.592 Y31.425
X30.172 Y30.113
X28.375 Y28.8
X24.193 Y25.8
X26.446 Y25.7
X35.296 Y31.6
X26.446 Y37.5
X36.5
Y38.9
X22.
Y36.803
X29.804 Y31.6
X22. Y26.397
Y24.3
X36.5
Y25.7
X26.446
G0 Z2.
X22. Y17.1
G1 Z-3.
Y8.101
G3 X23.4 Y7.265 I23. J36.899
G1 Y15.7
X28.6
Y4.732
G3 X29.9 Y4.226 I16.4 J40.268
G1 Y15.7
X35.1
Y2.662
G3 X36.5 Y2.359 I9.9 J42.338
G1 Y17.1
X22.
G0 Z2.
( DESBASTE ALAS )
X70.31 Y41.758
G1 Z-1.
X71.236 Y44.945
X70.954 Y45.32
X69.835 Y49.07
X70.713 Y45.695
Y44.57
X70.31 Y41.758
X70.9 Y40.106
X73.676 Y45.
X70.9 Y49.894
Y58.493
X66.37 Y63.283
Y67.334
X64.9 Y70.555
Y61.108
X68.5 Y57.638
Y45.
Y32.362
X64.9 Y28.892
Y19.445
X66.37 Y22.666
Y26.717
X70.9 Y31.507
Y40.106
G0 Z2.
( DESBASTE ORBITA IZQUIERDA )
S1999 M3
X41.471 Y54.606
G1 Z-2.3
X41.307 Y53.797
X41.547 Y52.623
X41.813 Y54.338
X42.701 Y55.556
X43.09 Y55.772
X42.888 Y55.726
X41.812 Y55.071
X41.471 Y54.606
G0 Z2.
X80.91 Y34.228
G1 Z-2.3
X81.112 Y34.274
X82.188 Y34.929
X82.529 Y35.394
X82.693 Y36.203
X82.453 Y37.377
X82.187 Y35.662
X81.299 Y34.444
X80.91 Y34.228
G0 Z2.
X41.471 Y54.606
G1 Z-2.5
X41.307 Y53.797
X41.547 Y52.623
X41.813 Y54.338
X42.701 Y55.556
X43.09 Y55.772
X42.888 Y55.726
X41.812 Y55.071
X41.471 Y54.606
G0 Z2.
X80.91 Y34.228
G1 Z-2.5
X81.112 Y34.274
X82.188 Y34.929
X82.529 Y35.394
X82.693 Y36.203
X82.453 Y37.377
X82.187 Y35.662
X81.299 Y34.444
X80.91 Y34.228
G0 Z2.
( DESBASTE ORBITA DERECHA )
S2000 M3
X41.396 Y35.478
G1 Z-1.8
X41.428 Y35.406
X41.462 Y35.337
X41.5 Y35.269
X41.543 Y35.202
X41.59 Y35.135
X41.643 Y35.069
X41.701 Y35.001
X41.766 Y34.934
X41.839 Y34.865
X41.919 Y34.797
X42.007 Y34.727
X42.104 Y34.657
X42.211 Y34.587
X42.329 Y34.517
X42.457 Y34.448
X42.596 Y34.379
X42.748 Y34.311
X42.911 Y34.244
X43.069 Y34.187
X42.999 Y34.238
X42.822 Y34.383
X42.654 Y34.536
X42.497 Y34.698
X42.351 Y34.867
X42.215 Y35.044
X42.092 Y35.228
X41.98 Y35.419
X41.89 Y35.595
X41.87 Y35.639
X41.792 Y35.822
X41.717 Y36.032
X41.655 Y36.246
X41.607 Y36.463
X41.572 Y36.684
X41.549 Y36.908
X41.539 Y37.134
X41.542 Y37.362
X41.548 Y37.449
X41.488 Y37.282
X41.434 Y37.116
X41.39 Y36.958
X41.354 Y36.808
X41.325 Y36.666
X41.303 Y36.532
X41.288 Y36.406
X41.279 Y36.287
X41.276 Y36.175
X41.277 Y36.07
X41.283 Y35.971
X41.293 Y35.878
X41.307 Y35.79
X41.324 Y35.706
X41.345 Y35.627
X41.369 Y35.551
X41.396 Y35.478
G0 Z2.
X80.931 Y55.813
G1 Z-1.8
X81.001 Y55.762
X81.178 Y55.617
X81.346 Y55.464
X81.503 Y55.302
X81.649 Y55.133
X81.785 Y54.956
X81.908 Y54.772
X82.02 Y54.581
X82.11 Y54.405
X82.13 Y54.361
X82.208 Y54.178
X82.283 Y53.968
X82.345 Y53.754
X82.393 Y53.537
X82.428 Y53.316
X82.451 Y53.092
X82.461 Y52.866
X82.458 Y52.638
X82.452 Y52.551
X82.512 Y52.718
X82.566 Y52.884
X82.61 Y53.042
X82.646 Y53.192
X82.675 Y53.334
X82.697 Y53.468
X82.712 Y53.594
X82.721 Y53.713
X82.724 Y53.825
X82.723 Y53.93
X82.717 Y54.029
X82.707 Y54.122
X82.693 Y54.21
X82.676 Y54.294
X82.655 Y54.373
X82.631 Y54.449
X82.604 Y54.522
X82.572 Y54.594
X82.538 Y54.663
X82.5 Y54.731
X82.457 Y54.798
X82.41 Y54.865
X82.357 Y54.931
X82.299 Y54.999
X82.234 Y55.066
X82.161 Y55.135
X82.081 Y55.203
X81.993 Y55.273
X81.896 Y55.343
X81.789 Y55.413
X81.671 Y55.483
X81.543 Y55.552
X81.404 Y55.621
X81.252 Y55.689
X81.089 Y55.756
X80.931 Y55.813
G0 Z2.
X41.396 Y35.478
G1 Z-2.
X41.428 Y35.406
X41.462 Y35.337
X41.5 Y35.269
X41.543 Y35.202
X41.59 Y35.135
X41.643 Y35.069
X41.701 Y35.001
X41.766 Y34.934
X41.839 Y34.865
X41.919 Y34.797
X42.007 Y34.727
X42.104 Y34.657
X42.211 Y34.587
X42.329 Y34.517
X42.457 Y34.448
X42.596 Y34.379
X42.748 Y34.311
X42.911 Y34.244
X43.069 Y34.187
X42.999 Y34.238
X42.822 Y34.383
X42.654 Y34.536
X42.497 Y34.698
X42.351 Y34.867
X42.215 Y35.044
X42.092 Y35.228
X41.98 Y35.419
X41.89 Y35.595
X41.87 Y35.639
X41.792 Y35.822
X41.717 Y36.032
X41.655 Y36.246
X41.607 Y36.463
X41.572 Y36.684
X41.549 Y36.908
X41.539 Y37.134
X41.542 Y37.362
X41.548 Y37.449
X41.488 Y37.282
X41.434 Y37.116
X41.39 Y36.958
X41.354 Y36.808
X41.325 Y36.666
X41.303 Y36.532
X41.288 Y36.406
X41.279 Y36.287
X41.276 Y36.175
X41.277 Y36.07
X41.283 Y35.971
X41.293 Y35.878
X41.307 Y35.79
X41.324 Y35.706
X41.345 Y35.627
X41.369 Y35.551
X41.396 Y35.478
G0 Z2.
X80.931 Y55.813
G1 Z-2.
X81.001 Y55.762
X81.178 Y55.617
X81.346 Y55.464
X81.503 Y55.302
X81.649 Y55.133
X81.785 Y54.956
X81.908 Y54.772
X82.02 Y54.581
X82.11 Y54.405
X82.13 Y54.361
X82.208 Y54.178
X82.283 Y53.968
X82.345 Y53.754
X82.393 Y53.537
X82.428 Y53.316
X82.451 Y53.092
X82.461 Y52.866
X82.458 Y52.638
X82.452 Y52.551
X82.512 Y52.718
X82.566 Y52.884
X82.61 Y53.042
X82.646 Y53.192
X82.675 Y53.334
X82.697 Y53.468
X82.712 Y53.594
X82.721 Y53.713
X82.724 Y53.825
X82.723 Y53.93
X82.717 Y54.029
X82.707 Y54.122
X82.693 Y54.21
X82.676 Y54.294
X82.655 Y54.373
X82.631 Y54.449
X82.604 Y54.522
X82.572 Y54.594
X82.538 Y54.663
X82.5 Y54.731
X82.457 Y54.798
X82.41 Y54.865
X82.357 Y54.931
X82.299 Y54.999
X82.234 Y55.066
X82.161 Y55.135
X82.081 Y55.203
X81.993 Y55.273
X81.896 Y55.343
X81.789 Y55.413
X81.671 Y55.483
X81.543 Y55.552
X81.404 Y55.621
X81.252 Y55.689
X81.089 Y55.756
X80.931 Y55.813
G0 Z2.
( DESBASTE RAYOS )
X59.191 Y32.386
G1 Z-2.8
X58.751 Y30.5
X55.904 Y25.074
X62.876 Y34.3
X60.211
X63.601 Y41.391
X55.956 Y30.5
X58.751
G0 Z2.
X59.348 Y57.609
G1 Z-2.8
X59.511
X59.195
X58.751 Y59.5
X55.956
X63.601 Y48.609
X60.211 Y55.7
X62.876
X55.904 Y64.926
X58.751 Y59.5
G0 Z2.
X59.191 Y32.386
G1 Z-3.
X58.751 Y30.5
X55.904 Y25.074
X62.876 Y34.3
X60.211
X63.601 Y41.391
X55.956 Y30.5
X58.751
G0 Z2.
X59.348 Y57.609
G1 Z-3.
X59.511
X59.195
X58.751 Y59.5
X55.956
X63.601 Y48.609
X60.211 Y55.7
X62.876
X55.904 Y64.926
X58.751 Y59.5
G0 Z2.
M5
G91 G28 Z0.
G28 X0. Y0. A0.


 