(DATE=DD-MM-YY - 29-11-22 TIME=HH:MM - 12:24)
(MCX FILE - D:\DOCUMENTOS\CNC\MASTERCAM\ESCUDO - OPTIMIZADO.MCX-5)
(NC FILE - D:\DOCUMENTOS\CNC\MASTERCAM\ESIME LOGO TOOL 1.NC)
(MATERIAL - PLASTIC MM - ACRYLIC)
( T1 | FRESA PLANA 1.8MM | H1 )
G21
G0 G17 G40 G49 G80 G90
( REMECANIZADO ALAS )
T1 M6
G0 G90 G54 X64.3 Y21.592 A0. S2000 M3
G43 H1 Z2.
G1 Z-1. F320.
Y12.964
X65.4 Y13.912
Y19.096
X66.46 Y21.418
G0 Z2.
X66.472 Y68.555
G1 Z-1.
X65.4 Y70.904
Y76.088
X64.3 Y77.036
Y68.394
G0 Z2.
( REMECANIZADO ORBITA IZQUIERDA )
X42.131 Y52.469
G1 Z-1.15
X42.383 Y54.102
X43.108 Y55.095
X44.769 Y56.018
X46.005 Y56.307
X47.472 Y56.44
X49.248 Y56.402
X51.351 Y56.165
X53.773 Y55.703
X56.481 Y54.999
X59.413 Y54.05
X62.341 Y52.929
X65.129 Y51.706
X68.24 Y50.155
X73.226 Y47.188
X77.137 Y44.247
X79.784 Y41.62
X81.284 Y39.41
X81.869 Y37.531
X81.617 Y35.898
X80.892 Y34.905
X79.231 Y33.982
X77.995 Y33.693
X76.528 Y33.56
X74.752 Y33.598
X72.649 Y33.835
X70.227 Y34.297
X67.519 Y35.001
X64.587 Y35.95
X61.659 Y37.071
X58.871 Y38.294
X55.76 Y39.845
X50.774 Y42.812
X46.863 Y45.753
X44.216 Y48.38
X42.716 Y50.59
X42.131 Y52.469
G0 Z2.
X40.817 Y54.398
G1 Z-1.15
X40.694 Y53.797
X40.99 Y52.357
X42.045 Y50.385
X44.121 Y47.892
X47.372 Y44.995
X51.762 Y41.921
X57.025 Y38.966
X58.784 Y38.114
X61.864 Y36.77
X64.917 Y35.616
X67.86 Y34.676
X70.606 Y33.964
X75.473 Y33.181
X79.043 Y33.185
X81.34 Y33.711
X82.602 Y34.479
X82.879 Y34.857
G0 Z2.
X83.195 Y35.657
G1 Z-1.15
X83.306 Y36.203
X83.01 Y37.643
X81.955 Y39.615
X79.879 Y42.108
X76.628 Y45.005
X72.238 Y48.079
X66.975 Y51.034
X65.216 Y51.886
X62.136 Y53.23
X59.083 Y54.384
X56.14 Y55.324
X53.394 Y56.036
X48.527 Y56.819
X44.957 Y56.815
X42.66 Y56.289
X41.398 Y55.521
X41.241 Y55.306
G0 Z2.
X42.131 Y52.469
G1 Z-2.3
X42.383 Y54.102
X43.108 Y55.095
X44.769 Y56.018
X46.005 Y56.307
X47.472 Y56.44
X49.248 Y56.402
X51.351 Y56.165
X53.773 Y55.703
X56.481 Y54.999
X59.413 Y54.05
X62.341 Y52.929
X65.129 Y51.706
X68.24 Y50.155
X73.226 Y47.188
X77.137 Y44.247
X79.784 Y41.62
X81.284 Y39.41
X81.869 Y37.531
X81.617 Y35.898
X80.892 Y34.905
X79.231 Y33.982
X77.995 Y33.693
X76.528 Y33.56
X74.752 Y33.598
X72.649 Y33.835
X70.227 Y34.297
X67.519 Y35.001
X64.587 Y35.95
X61.659 Y37.071
X58.871 Y38.294
X55.76 Y39.845
X50.774 Y42.812
X46.863 Y45.753
X44.216 Y48.38
X42.716 Y50.59
X42.131 Y52.469
G0 Z2.
X40.817 Y54.398
G1 Z-2.3
X40.694 Y53.797
X40.99 Y52.357
X42.045 Y50.385
X44.121 Y47.892
X47.372 Y44.995
X51.762 Y41.921
X57.025 Y38.966
X58.784 Y38.114
X61.864 Y36.77
X64.917 Y35.616
X67.86 Y34.676
X70.606 Y33.964
X75.473 Y33.181
X79.043 Y33.185
X81.34 Y33.711
X82.602 Y34.479
X82.879 Y34.857
G0 Z2.
X83.195 Y35.657
G1 Z-2.3
X83.306 Y36.203
X83.01 Y37.643
X81.955 Y39.615
X79.879 Y42.108
X76.628 Y45.005
X72.238 Y48.079
X66.975 Y51.034
X65.216 Y51.886
X62.136 Y53.23
X59.083 Y54.384
X56.14 Y55.324
X53.394 Y56.036
X48.527 Y56.819
X44.957 Y56.815
X42.66 Y56.289
X41.398 Y55.521
X41.241 Y55.306
G0 Z2.
X42.131 Y52.469
G1 Z-2.5
X42.383 Y54.102
X43.108 Y55.095
X44.769 Y56.018
X46.005 Y56.307
X47.472 Y56.44
X49.248 Y56.402
X51.351 Y56.165
X53.773 Y55.703
X56.481 Y54.999
X59.413 Y54.05
X62.341 Y52.929
X65.129 Y51.706
X68.24 Y50.155
X73.226 Y47.188
X77.137 Y44.247
X79.784 Y41.62
X81.284 Y39.41
X81.869 Y37.531
X81.617 Y35.898
X80.892 Y34.905
X79.231 Y33.982
X77.995 Y33.693
X76.528 Y33.56
X74.752 Y33.598
X72.649 Y33.835
X70.227 Y34.297
X67.519 Y35.001
X64.587 Y35.95
X61.659 Y37.071
X58.871 Y38.294
X55.76 Y39.845
X50.774 Y42.812
X46.863 Y45.753
X44.216 Y48.38
X42.716 Y50.59
X42.131 Y52.469
G0 Z2.
X40.817 Y54.398
G1 Z-2.5
X40.694 Y53.797
X40.99 Y52.357
X42.045 Y50.385
X44.121 Y47.892
X47.372 Y44.995
X51.762 Y41.921
X57.025 Y38.966
X58.784 Y38.114
X61.864 Y36.77
X64.917 Y35.616
X67.86 Y34.676
X70.606 Y33.964
X75.473 Y33.181
X79.043 Y33.185
X81.34 Y33.711
X82.602 Y34.479
X82.879 Y34.857
G0 Z2.
X83.195 Y35.657
G1 Z-2.5
X83.306 Y36.203
X83.01 Y37.643
X81.955 Y39.615
X79.879 Y42.108
X76.628 Y45.005
X72.238 Y48.079
X66.975 Y51.034
X65.216 Y51.886
X62.136 Y53.23
X59.083 Y54.384
X56.14 Y55.324
X53.394 Y56.036
X48.527 Y56.819
X44.957 Y56.815
X42.66 Y56.289
X41.398 Y55.521
X41.241 Y55.306
G0 Z2.
( REMECANIZADO ORBITA DERECHA )
X42.383 Y35.898
G1 Z-.9
X42.131 Y37.531
X42.716 Y39.41
X44.216 Y41.62
X46.863 Y44.247
X50.774 Y47.188
X55.76 Y50.155
X58.871 Y51.706
X61.659 Y52.929
X64.587 Y54.05
X67.519 Y54.999
X70.227 Y55.703
X72.649 Y56.165
X74.752 Y56.402
X76.528 Y56.44
X77.995 Y56.307
X79.231 Y56.018
X80.892 Y55.095
X81.617 Y54.102
X81.869 Y52.469
X81.284 Y50.59
X79.784 Y48.38
X77.137 Y45.753
X73.226 Y42.812
X68.24 Y39.845
X65.129 Y38.294
X62.341 Y37.071
X59.413 Y35.95
X56.481 Y35.001
X53.773 Y34.297
X51.351 Y33.835
X49.248 Y33.598
X47.472 Y33.56
X46.005 Y33.693
X44.769 Y33.982
X43.108 Y34.905
X42.383 Y35.898
G0 Z2.
X41.149 Y34.819
G1 Z-.9
X41.398 Y34.479
X42.66 Y33.711
X44.957 Y33.185
X48.527 Y33.181
X53.394 Y33.964
X56.14 Y34.676
X59.083 Y35.616
X62.136 Y36.77
X65.216 Y38.114
X66.975 Y38.966
X72.238 Y41.921
X76.628 Y44.995
X79.879 Y47.892
X81.955 Y50.385
X83.01 Y52.357
X83.306 Y53.797
X83.207 Y54.283
G0 Z2.
X82.82 Y55.223
G1 Z-.9
X82.602 Y55.521
X81.34 Y56.289
X79.043 Y56.815
X75.473 Y56.819
X70.606 Y56.036
X67.86 Y55.324
X64.917 Y54.384
X61.864 Y53.23
X58.784 Y51.886
X57.025 Y51.034
X51.762 Y48.079
X47.372 Y45.005
X44.121 Y42.108
X42.045 Y39.615
X40.99 Y37.643
X40.694 Y36.203
X40.782 Y35.774
G0 Z2.
X42.383 Y35.898
G1 Z-1.8
X42.131 Y37.531
X42.716 Y39.41
X44.216 Y41.62
X46.863 Y44.247
X50.774 Y47.188
X55.76 Y50.155
X58.871 Y51.706
X61.659 Y52.929
X64.587 Y54.05
X67.519 Y54.999
X70.227 Y55.703
X72.649 Y56.165
X74.752 Y56.402
X76.528 Y56.44
X77.995 Y56.307
X79.231 Y56.018
X80.892 Y55.095
X81.617 Y54.102
X81.869 Y52.469
X81.284 Y50.59
X79.784 Y48.38
X77.137 Y45.753
X73.226 Y42.812
X68.24 Y39.845
X65.129 Y38.294
X62.341 Y37.071
X59.413 Y35.95
X56.481 Y35.001
X53.773 Y34.297
X51.351 Y33.835
X49.248 Y33.598
X47.472 Y33.56
X46.005 Y33.693
X44.769 Y33.982
X43.108 Y34.905
X42.383 Y35.898
G0 Z2.
X41.149 Y34.819
G1 Z-1.8
X41.398 Y34.479
X42.66 Y33.711
X44.957 Y33.185
X48.527 Y33.181
X53.394 Y33.964
X56.14 Y34.676
X59.083 Y35.616
X62.136 Y36.77
X65.216 Y38.114
X66.975 Y38.966
X72.238 Y41.921
X76.628 Y44.995
X79.879 Y47.892
X81.955 Y50.385
X83.01 Y52.357
X83.306 Y53.797
X83.207 Y54.283
G0 Z2.
X82.82 Y55.223
G1 Z-1.8
X82.602 Y55.521
X81.34 Y56.289
X79.043 Y56.815
X75.473 Y56.819
X70.606 Y56.036
X67.86 Y55.324
X64.917 Y54.384
X61.864 Y53.23
X58.784 Y51.886
X57.025 Y51.034
X51.762 Y48.079
X47.372 Y45.005
X44.121 Y42.108
X42.045 Y39.615
X40.99 Y37.643
X40.694 Y36.203
X40.782 Y35.774
G0 Z2.
X42.383 Y35.898
G1 Z-2.
X42.131 Y37.531
X42.716 Y39.41
X44.216 Y41.62
X46.863 Y44.247
X50.774 Y47.188
X55.76 Y50.155
X58.871 Y51.706
X61.659 Y52.929
X64.587 Y54.05
X67.519 Y54.999
X70.227 Y55.703
X72.649 Y56.165
X74.752 Y56.402
X76.528 Y56.44
X77.995 Y56.307
X79.231 Y56.018
X80.892 Y55.095
X81.617 Y54.102
X81.869 Y52.469
X81.284 Y50.59
X79.784 Y48.38
X77.137 Y45.753
X73.226 Y42.812
X68.24 Y39.845
X65.129 Y38.294
X62.341 Y37.071
X59.413 Y35.95
X56.481 Y35.001
X53.773 Y34.297
X51.351 Y33.835
X49.248 Y33.598
X47.472 Y33.56
X46.005 Y33.693
X44.769 Y33.982
X43.108 Y34.905
X42.383 Y35.898
G0 Z2.
X41.149 Y34.819
G1 Z-2.
X41.398 Y34.479
X42.66 Y33.711
X44.957 Y33.185
X48.527 Y33.181
X53.394 Y33.964
X56.14 Y34.676
X59.083 Y35.616
X62.136 Y36.77
X65.216 Y38.114
X66.975 Y38.966
X72.238 Y41.921
X76.628 Y44.995
X79.879 Y47.892
X81.955 Y50.385
X83.01 Y52.357
X83.306 Y53.797
X83.207 Y54.283
G0 Z2.
X82.82 Y55.223
G1 Z-2.
X82.602 Y55.521
X81.34 Y56.289
X79.043 Y56.815
X75.473 Y56.819
X70.606 Y56.036
X67.86 Y55.324
X64.917 Y54.384
X61.864 Y53.23
X58.784 Y51.886
X57.025 Y51.034
X51.762 Y48.079
X47.372 Y45.005
X44.121 Y42.108
X42.045 Y39.615
X40.99 Y37.643
X40.694 Y36.203
X40.782 Y35.774
G0 Z2.
( REMECANIZADO RAYOS )
X62.891 Y51.486
G1 Z-1.4
X61.163 Y55.1
X64.082
X62.041 Y57.8
G0 Z2.
X61.98 Y55.1
G1 Z-1.4
X61.163
X61.942 Y53.47
X61.864 Y50.039
X65.402 Y45.
X61.896 Y40.006
G0 Z2.
X63.219 Y39.201
G1 Z-1.4
X65.753 Y44.5
X67.251 Y42.365
X65.992 Y45.
X67.251 Y47.635
X65.753 Y45.5
X63.218 Y50.801
G0 Z2.
X63.064 Y48.33
G1 Z-1.4
X65.402 Y45.
X62.609 Y41.021
X62.387 Y37.459
X61.163 Y34.9
X62.227
X62.06 Y32.225
X64.082 Y34.9
X61.163
X62.92 Y38.575
G0 Z2.
X56.686 Y32.584
G1 Z-1.4
X54.801 Y29.9
X57.759
X51.978 Y18.884
X57.658 Y26.4
G0 Z2.
X57.706 Y63.536
G1 Z-1.4
X51.978 Y71.116
X57.759 Y60.1
X54.801
X56.718 Y57.37
G0 Z2.
X62.891 Y51.486
G1 Z-2.8
X61.163 Y55.1
X64.082
X62.041 Y57.8
G0 Z2.
X61.98 Y55.1
G1 Z-2.8
X61.163
X61.942 Y53.47
X61.864 Y50.039
X65.402 Y45.
X61.896 Y40.006
G0 Z2.
X63.219 Y39.201
G1 Z-2.8
X65.753 Y44.5
X67.251 Y42.365
X65.992 Y45.
X67.251 Y47.635
X65.753 Y45.5
X63.218 Y50.801
G0 Z2.
X63.064 Y48.33
G1 Z-2.8
X65.402 Y45.
X62.609 Y41.021
X62.387 Y37.459
X61.163 Y34.9
X62.227
X62.06 Y32.225
X64.082 Y34.9
X61.163
X62.92 Y38.575
G0 Z2.
X56.686 Y32.584
G1 Z-2.8
X54.801 Y29.9
X57.759
X51.978 Y18.884
X57.658 Y26.4
G0 Z2.
X57.706 Y63.536
G1 Z-2.8
X51.978 Y71.116
X57.759 Y60.1
X54.801
X56.718 Y57.37
G0 Z2.
X62.891 Y51.486
G1 Z-3.
X61.163 Y55.1
X64.082
X62.041 Y57.8
G0 Z2.
X61.98 Y55.1
G1 Z-3.
X61.163
X61.942 Y53.47
X61.864 Y50.039
X65.402 Y45.
X61.896 Y40.006
G0 Z2.
X63.219 Y39.201
G1 Z-3.
X65.753 Y44.5
X67.251 Y42.365
X65.992 Y45.
X67.251 Y47.635
X65.753 Y45.5
X63.218 Y50.801
G0 Z2.
X63.064 Y48.33
G1 Z-3.
X65.402 Y45.
X62.609 Y41.021
X62.387 Y37.459
X61.163 Y34.9
X62.227
X62.06 Y32.225
X64.082 Y34.9
X61.163
X62.92 Y38.575
G0 Z2.
X56.686 Y32.584
G1 Z-3.
X54.801 Y29.9
X57.759
X51.978 Y18.884
X57.658 Y26.4
G0 Z2.
X57.706 Y63.536
G1 Z-3.
X51.978 Y71.116
X57.759 Y60.1
X54.801
X56.718 Y57.37
G0 Z2.
( DESBASTE-AFINADO ENGRANE )
X9.325 Y42.773 Z10.
G1 Z-.5
X9.34 F639.6
G3 X9.361 Y42.774 I-.007 J.3
G1 X15.097 Y43.326
G2 X15.071 Y43.886 I29.903 J1.674
G1 X6.231
G2 X6.213 Y43.981 I.282 J.103
X6.2 Y45. I38.787 J1.019
G1 X15.05
G2 X15.071 Y46.114 I29.95 J0.
G1 X6.231
G2 X6.421 Y46.297 I.282 J-.103
G1 X9.24 Y47.213
G2 X9.325 Y47.227 I.093 J-.286
G1 X9.34
G0 Z10.
X16.327 Y53.655
G1 Z-.5 F320.
X16.328 F639.6
G2 X16.802 Y55.094 I28.672 J-8.655
G1 X10.76
X10.749 Y55.097
G2 X10.64 Y55.151 I.075 J.291
G1 X8.87 Y56.534
X17.36
G2 X17.473 Y56.8 I27.64 J-11.534
G1 X15.012 Y57.974
X8.433
G2 X8.901 Y59.224 I36.567 J-12.974
X9.173 Y59.414 I.279 J-.11
G1 X9.188
G0 Z10.
X21.017 Y62.939
G1 Z-.5 F320.
G2 X22.057 Y64.252 I23.983 J-17.939 F639.6
G1 X19.107
X17.198 Y65.564
X23.109
X21.82 Y66.876
X15.818
X14.998 Y68.189
X20.53
X19.24 Y69.501
X14.915
G2 X15.943 Y70.712 I30.085 J-24.501
X16.16 Y70.813 I.225 J-.198
G1 X16.175
G0 Z10.
X28.599 Y70.06
G1 Z-.5 F320.
X27.674 Y71.357 F639.6
X30.776
G2 X31.498 Y71.734 I14.224 J-26.357
G1 X31.079 Y72.653
X26.749
X25.824 Y73.95
X30.488
X29.897 Y75.246
X25.122
X24.846 Y76.543
X29.306
X29.108 Y76.977
G3 X29.036 Y77.076 I-.273 J-.124
G1 X28.188 Y77.84
X24.581
G2 X24.724 Y78.081 I.3 J-.015
X26.489 Y79.1 I20.276 J-33.081
X26.625 Y79.136 I.144 J-.264
G1 X26.64
G0 Z10.
X38.159 Y74.158
G1 Z-.5 F320.
G2 X41.456 Y74.74 I6.841 J-29.158 F639.6
G1 X41.398 Y75.475
X37.794
X37.428 Y76.792
X41.294
X41.191 Y78.109
X37.063
X36.698 Y79.426
X41.087
X41.004 Y80.484
G3 X40.969 Y80.601 I-.299 J-.024
G1 X40.894 Y80.743
X36.739
X36.924 Y82.061
X40.193
X39.578 Y83.218
G3 X39.321 Y83.378 I-.265 J-.14
G1 X39.305
G0 Z10.
X51.841 Y74.158
G1 Z-.5 F320.
X52.206 Y75.475 F639.6
X48.602
X48.706 Y76.792
X52.572
X52.937 Y78.109
X48.809
X48.913 Y79.426
X53.302
X53.381 Y79.711
G3 X53.392 Y79.791 I-.289 J.08
X53.389 Y79.833 I-.3 J0.
G1 X53.261 Y80.743
X49.106
X49.807 Y82.061
X53.076
X52.976 Y82.768
G3 X52.739 Y83.02 I-.297 J-.042
X50.731 Y83.374 I-7.739 J-38.02
X50.695 Y83.378 I-.044 J-.296
G1 X50.679
G0 Z10.
X61.401 Y70.06
G1 Z-.5 F320.
X62.326 Y71.357 F639.6
X59.224
G3 X58.502 Y71.734 I-14.224 J-26.357
G1 X58.921 Y72.653
X63.251
X64.176 Y73.95
X59.512
X60.103 Y75.246
X64.878
X65.154 Y76.543
X60.694
X60.892 Y76.977
G2 X60.964 Y77.076 I.273 J-.124
G1 X61.812 Y77.84
X65.419
G3 X65.276 Y78.081 I-.3 J-.015
X63.511 Y79.1 I-20.276 J-33.081
X63.375 Y79.136 I-.144 J-.264
G1 X63.36
G0 Z10.
X68.983 Y62.939
G1 Z-.5 F320.
X70.893 Y64.252 F639.6
X67.943
G3 X66.831 Y65.504 I-22.943 J-19.252
G1 X66.891 Y65.564
X72.802
X73.732 Y66.203
G3 X73.816 Y66.291 I-.17 J.247
G1 X74.182 Y66.876
X68.18
X69.47 Y68.189
X75.002
X75.387 Y68.805
G3 X75.433 Y68.964 I-.254 J.159
X75.367 Y69.151 I-.3 J0.
X75.085 Y69.501 I-30.367 J-24.151
G1 X70.76
X70.87 Y69.613
G2 X70.972 Y69.681 I.214 J-.21
G1 X73.72 Y70.792
G2 X73.825 Y70.813 I.112 J-.278
G1 X73.84
G0 Z10.
X73.672 Y53.655
G1 Z-.5 F320.
X73.673 F639.6
X79.24 Y55.094
X73.198
G3 X72.64 Y56.534 I-28.198 J-10.094
G1 X81.13
X81.696 Y56.976
G3 X81.812 Y57.213 I-.184 J.237
X81.796 Y57.308 I-.3 J0.
X81.567 Y57.974 I-36.796 J-12.308
G1 X74.988
X77.728 Y59.281
G2 X77.847 Y59.31 I.129 J-.271
G1 X80.809 Y59.413
X80.812 Y59.414
X80.827
G0 Z10.
X80.66 Y42.773
G1 Z-.5 F320.
X80.675 F639.6
G3 X80.76 Y42.787 I-.008 J.3
G1 X83.579 Y43.703
G3 X83.769 Y43.886 I-.092 J.286
G1 X74.929
G3 X74.95 Y45. I-29.929 J1.114
G1 X83.8
G3 X83.787 Y46.019 I-38.8 J0.
X83.769 Y46.114 I-.3 J-.008
G1 X74.929
G3 X74.903 Y46.674 I-29.929 J-1.114
G1 X80.639 Y47.226
G2 X80.66 Y47.227 I.028 J-.299
G1 X80.675
G0 Z10.
X80.812 Y30.586
G1 Z-.5 F320.
X80.827 F639.6
G3 X81.099 Y30.776 I-.007 J.3
X81.567 Y32.026 I-36.099 J14.224
G1 X74.988
X72.527 Y33.2
G3 X72.64 Y33.466 I-27.527 J11.8
G1 X81.13
X79.36 Y34.849
G3 X79.251 Y34.903 I-.184 J-.237
G1 X79.24 Y34.906
X73.198
G3 X73.672 Y36.345 I-28.198 J10.094
G1 X73.673
G0 Z10.
X73.825 Y19.187
G1 Z-.5 F320.
X73.84 F639.6
G3 X74.057 Y19.288 I-.008 J.299
X75.085 Y20.499 I-29.057 J25.712
G1 X70.76
X69.47 Y21.811
X75.002
X74.182 Y23.124
X68.18
X66.891 Y24.436
X72.802
X70.893 Y25.748
X67.943
G3 X68.983 Y27.061 I-22.943 J19.252
G0 Z10.
X63.36 Y10.864
G1 Z-.5 F320.
X63.375 F639.6
G3 X63.511 Y10.9 I-.008 J.3
X65.276 Y11.919 I-18.511 J34.1
X65.419 Y12.16 I-.157 J.256
G1 X61.812
X60.964 Y12.924
G2 X60.892 Y13.023 I.201 J.223
G1 X60.694 Y13.457
X65.154
X64.878 Y14.754
X60.103
X59.512 Y16.05
X64.176
X63.251 Y17.347
X58.921
X58.502 Y18.266
G3 X59.224 Y18.643 I-13.502 J26.734
G1 X62.326
X61.401 Y19.94
G0 Z10.
X50.679 Y6.622
G1 Z-.5 F320.
X50.695 F639.6
G3 X50.731 Y6.626 I-.008 J.3
X52.739 Y6.98 I-5.731 J38.374
X52.976 Y7.232 I-.06 J.294
G1 X53.076 Y7.939
X49.807
X49.106 Y9.257
X53.261
X53.389 Y10.167
G3 X53.392 Y10.209 I-.297 J.042
X53.381 Y10.289 I-.3 J0.
G1 X53.302 Y10.574
X48.913
X48.809 Y11.891
X52.937
X52.572 Y13.208
X48.706
X48.602 Y14.525
X52.206
X51.841 Y15.842
G0 Z10.
X39.305 Y6.622
G1 Z-.5 F320.
X39.321 F639.6
G3 X39.578 Y6.782 I-.008 J.3
G1 X40.193 Y7.939
X36.924
X36.739 Y9.257
X40.894
X40.969 Y9.399
G3 X41.004 Y9.516 I-.264 J.141
G1 X41.087 Y10.574
X36.698
X37.063 Y11.891
X41.191
X41.294 Y13.208
X37.428
X37.794 Y14.525
X41.398
X41.456 Y15.26
G2 X38.159 Y15.842 I3.544 J29.74
G0 Z10.
X26.625 Y10.864
G1 Z-.5 F320.
X26.64 F639.6
G3 X26.833 Y10.941 I-.007 J.3
G1 X28.188 Y12.16
X24.581
Y12.175
G2 X24.587 Y12.238 I.3 J0.
G1 X24.846 Y13.457
X29.306
X29.897 Y14.754
X25.122
X25.204 Y15.137
G2 X25.253 Y15.249 I.293 J-.062
G1 X25.824 Y16.05
X30.488
X31.079 Y17.347
X26.749
X27.674 Y18.643
X30.776
G2 X28.599 Y19.94 I14.224 J26.357
G0 Z10.
X16.16 Y19.187
G1 Z-.5 F320.
X16.175 F639.6
G3 X16.28 Y19.208 I-.007 J.299
G1 X19.028 Y20.319
G3 X19.13 Y20.387 I-.112 J.278
G1 X19.24 Y20.499
X14.915
G2 X14.633 Y20.849 I30.085 J24.501
X14.567 Y21.036 I.234 J.187
X14.613 Y21.195 I.3 J0.
G1 X14.998 Y21.811
X20.53
X21.82 Y23.124
X15.818
X16.184 Y23.709
G2 X16.268 Y23.797 I.254 J-.159
G1 X17.198 Y24.436
X23.109
X23.169 Y24.496
G2 X22.057 Y25.748 I21.831 J20.504
G1 X19.107
X21.017 Y27.061
G0 Z10.
X9.173 Y30.586
G1 Z-.5 F320.
X9.188 F639.6
X9.191 Y30.587
X12.153 Y30.69
G3 X12.272 Y30.719 I-.01 J.3
G1 X15.012 Y32.026
X8.433
G2 X8.204 Y32.692 I36.567 J12.974
X8.189 Y32.787 I.284 J.095
X8.304 Y33.024 I.299 J0.
G1 X8.87 Y33.466
X17.36
G2 X16.802 Y34.906 I27.64 J11.534
G1 X10.76
X16.327 Y36.345
X16.328
G0 Z10.
X16.084 Y36.592
G1 Z-.5 F320.
X10.674 Y35.193 F639.6
G3 X10.455 Y35.085 I.15 J-.581
G1 X8.119 Y33.26
G3 X7.888 Y32.787 I.369 J-.473
X7.919 Y32.597 I.6 J0.
X8.622 Y30.666 I37.081 J12.403
X9.18 Y30.286 I.558 J.22
X9.201 Y30.287 I0. J.6
G1 X12.164 Y30.39
G3 X12.401 Y30.448 I-.021 J.6
G1 X17.445 Y32.854
X17.832 Y32.042
G3 X20.194 Y27.951 I27.168 J12.958
G1 X20.704 Y27.209
X16.098 Y24.044
G3 X15.929 Y23.868 I.34 J-.494
G1 X14.359 Y21.354
G3 X14.268 Y21.036 I.508 J-.318
X14.398 Y20.663 I.599 J0.
X15.718 Y19.089 I30.602 J24.337
X16.168 Y18.886 I.45 J.397
X16.392 Y18.93 I0. J.6
G1 X19.141 Y20.041
G3 X19.344 Y20.176 I-.225 J.556
G1 X23.261 Y24.162
X23.903 Y23.531
G3 X27.521 Y20.495 I21.097 J21.469
G1 X28.254 Y19.972
X25.009 Y15.423
G3 X24.91 Y15.2 I.488 J-.348
G1 X24.294 Y12.3
G3 X24.281 Y12.175 I.587 J-.125
X24.567 Y11.664 I.6 J0.
X26.346 Y10.637 I20.433 J33.336
X26.633 Y10.564 I.287 J.527
X27.034 Y10.718 I0. J.6
G1 X29.237 Y12.701
G3 X29.381 Y12.899 I-.402 J.446
G1 X31.699 Y17.983
X32.518 Y17.61
G3 X36.956 Y15.995 I12.482 J27.39
G1 X37.823 Y15.754
X36.33 Y10.369
G3 X36.308 Y10.209 I.578 J-.16
X36.314 Y10.126 I.6 J0.
G1 X36.727 Y7.19
G3 X37.201 Y6.686 I.594 J.084
X39.224 Y6.329 I7.799 J38.314
X39.313 Y6.322 I.089 J.593
X39.843 Y6.641 I0. J.6
G1 X41.234 Y9.258
G3 X41.303 Y9.493 I-.529 J.282
G1 X41.741 Y15.063
X42.638 Y14.993
G3 X45. Y14.9 I2.362 J30.007
X47.362 Y14.993 I0. J30.1
G1 X48.259 Y15.063
X48.697 Y9.493
G3 X48.766 Y9.258 I.598 J.047
G1 X50.157 Y6.641
G3 X50.687 Y6.322 I.53 J.281
X50.776 Y6.329 I0. J.6
X52.799 Y6.686 I-5.776 J38.671
X53.273 Y7.19 I-.12 J.588
G1 X53.686 Y10.126
G3 X53.692 Y10.209 I-.594 J.083
X53.67 Y10.369 I-.6 J0.
G1 X52.177 Y15.754
X53.044 Y15.995
G3 X57.482 Y17.61 I-8.044 J29.005
G1 X58.301 Y17.983
X60.619 Y12.899
G3 X60.763 Y12.701 I.546 J.248
G1 X62.966 Y10.718
G3 X63.367 Y10.564 I.401 J.446
X63.654 Y10.637 I0. J.6
X65.433 Y11.664 I-18.654 J34.363
X65.719 Y12.175 I-.314 J.511
X65.706 Y12.3 I-.6 J0.
G1 X65.09 Y15.2
G3 X64.991 Y15.423 I-.587 J-.125
G1 X61.746 Y19.972
X62.479 Y20.495
G3 X66.097 Y23.531 I-17.479 J24.505
G1 X66.739 Y24.162
X70.656 Y20.176
G3 X70.859 Y20.041 I.428 J.421
G1 X73.608 Y18.93
G3 X73.832 Y18.887 I.224 J.556
X74.282 Y19.089 I0. J.599
X75.602 Y20.663 I-29.282 J25.911
X75.732 Y21.036 I-.469 J.373
X75.641 Y21.354 I-.599 J0.
G1 X74.071 Y23.868
G3 X73.902 Y24.044 I-.509 J-.318
G1 X69.296 Y27.209
X69.806 Y27.951
G3 X72.168 Y32.042 I-24.806 J17.049
G1 X72.555 Y32.854
X77.599 Y30.448
G3 X77.836 Y30.39 I.258 J.542
G1 X80.799 Y30.287
X80.82
G3 X81.378 Y30.666 I0. J.599
X82.081 Y32.597 I-36.378 J14.334
X82.112 Y32.787 I-.569 J.19
X81.881 Y33.26 I-.6 J0.
G1 X79.545 Y35.085
G3 X79.326 Y35.193 I-.369 J-.473
G1 X73.916 Y36.592
X74.141 Y37.464
G3 X74.961 Y42.115 I-29.141 J7.536
G1 X75.048 Y43.011
X80.61 Y42.475
G3 X80.667 Y42.472 I.057 J.598
X80.853 Y42.502 I0. J.601
G1 X83.672 Y43.418
G3 X84.087 Y43.973 I-.185 J.571
X84.1 Y45. I-39.087 J1.027
X84.087 Y46.027 I-39.1 J0.
X83.672 Y46.582 I-.6 J-.016
G1 X80.853 Y47.498
G3 X80.667 Y47.528 I-.186 J-.571
X80.61 Y47.525 I0. J-.601
G1 X75.048 Y46.989
X74.961 Y47.885
G3 X74.141 Y52.536 I-29.961 J-2.885
G1 X73.916 Y53.408
X79.326 Y54.807
G3 X79.545 Y54.915 I-.15 J.581
G1 X81.881 Y56.74
G3 X82.112 Y57.213 I-.369 J.473
X82.081 Y57.403 I-.6 J0.
X81.378 Y59.334 I-37.081 J-12.403
X80.82 Y59.714 I-.558 J-.22
X80.799 Y59.713 I0. J-.6
G1 X77.836 Y59.61
G3 X77.599 Y59.552 I.021 J-.6
G1 X72.555 Y57.146
X72.168 Y57.958
G3 X69.806 Y62.049 I-27.168 J-12.958
G1 X69.296 Y62.791
X73.902 Y65.956
G3 X74.071 Y66.132 I-.34 J.494
G1 X75.641 Y68.646
G3 X75.732 Y68.964 I-.508 J.318
X75.602 Y69.337 I-.599 J0.
X74.282 Y70.911 I-30.602 J-24.337
X73.832 Y71.114 I-.45 J-.397
X73.608 Y71.07 I0. J-.6
G1 X70.859 Y69.959
G3 X70.656 Y69.824 I.225 J-.556
G1 X66.739 Y65.838
X66.097 Y66.469
G3 X62.479 Y69.505 I-21.097 J-21.469
G1 X61.746 Y70.028
X64.991 Y74.577
G3 X65.09 Y74.8 I-.488 J.348
G1 X65.706 Y77.7
G3 X65.719 Y77.825 I-.587 J.125
X65.433 Y78.336 I-.6 J0.
X63.654 Y79.363 I-20.433 J-33.336
X63.367 Y79.436 I-.287 J-.527
X62.966 Y79.282 I0. J-.6
G1 X60.763 Y77.299
G3 X60.619 Y77.101 I.402 J-.446
G1 X58.301 Y72.017
X57.482 Y72.39
G3 X53.044 Y74.005 I-12.482 J-27.39
G1 X52.177 Y74.246
X53.67 Y79.631
G3 X53.692 Y79.791 I-.578 J.16
X53.686 Y79.874 I-.6 J0.
G1 X53.273 Y82.81
G3 X52.799 Y83.314 I-.594 J-.084
X50.776 Y83.671 I-7.799 J-38.314
X50.687 Y83.678 I-.089 J-.593
X50.157 Y83.359 I0. J-.6
G1 X48.766 Y80.742
G3 X48.697 Y80.507 I.529 J-.282
G1 X48.259 Y74.937
X47.362 Y75.007
G3 X45. Y75.1 I-2.362 J-30.007
X42.638 Y75.007 I0. J-30.1
G1 X41.741 Y74.937
X41.303 Y80.507
G3 X41.234 Y80.742 I-.598 J-.047
G1 X39.843 Y83.359
G3 X39.313 Y83.678 I-.53 J-.281
X39.224 Y83.671 I0. J-.6
X37.201 Y83.314 I5.776 J-38.671
X36.727 Y82.81 I.12 J-.588
G1 X36.314 Y79.874
G3 X36.308 Y79.791 I.594 J-.083
X36.33 Y79.631 I.6 J0.
G1 X37.823 Y74.246
X36.956 Y74.005
G3 X32.518 Y72.39 I8.044 J-29.005
G1 X31.699 Y72.017
X29.381 Y77.101
G3 X29.237 Y77.299 I-.546 J-.248
G1 X27.034 Y79.282
G3 X26.633 Y79.436 I-.401 J-.446
X26.346 Y79.363 I0. J-.6
X24.567 Y78.336 I18.654 J-34.363
X24.281 Y77.825 I.314 J-.511
X24.294 Y77.7 I.6 J0.
G1 X24.91 Y74.8
G3 X25.009 Y74.577 I.587 J.125
G1 X28.254 Y70.028
X27.521 Y69.505
G3 X23.903 Y66.469 I17.479 J-24.505
G1 X23.261 Y65.838
X19.344 Y69.824
G3 X19.141 Y69.959 I-.428 J-.421
G1 X16.392 Y71.07
G3 X16.168 Y71.113 I-.224 J-.556
X15.718 Y70.911 I0. J-.599
X14.398 Y69.337 I29.282 J-25.911
X14.268 Y68.964 I.469 J-.373
X14.359 Y68.646 I.599 J0.
G1 X15.929 Y66.132
G3 X16.098 Y65.956 I.509 J.318
G1 X20.704 Y62.791
X20.194 Y62.049
G3 X17.832 Y57.958 I24.806 J-17.049
G1 X17.445 Y57.146
X12.401 Y59.552
G3 X12.164 Y59.61 I-.258 J-.542
G1 X9.201 Y59.713
X9.18
G3 X8.622 Y59.334 I0. J-.599
X7.919 Y57.403 I36.378 J-14.334
X7.888 Y57.213 I.569 J-.19
X8.119 Y56.74 I.6 J0.
G1 X10.455 Y54.915
G3 X10.674 Y54.807 I.369 J.473
G1 X16.084 Y53.408
X15.859 Y52.536
G3 X15.039 Y47.885 I29.141 J-7.536
G1 X14.952 Y46.989
X9.39 Y47.525
G3 X9.333 Y47.528 I-.057 J-.598
X9.147 Y47.498 I0. J-.601
G1 X6.328 Y46.582
G3 X5.913 Y46.027 I.185 J-.571
X5.9 Y45. I39.087 J-1.027
X5.913 Y43.973 I39.1 J0.
X6.328 Y43.418 I.6 J.016
G1 X9.147 Y42.502
G3 X9.333 Y42.472 I.186 J.571
X9.39 Y42.475 I0. J.601
G1 X14.952 Y43.011
X15.039 Y42.115
G3 X15.859 Y37.464 I29.961 J2.885
G1 X16.084 Y36.592
G0 Z10.
X45. Y15.35
G1 Z-.5 F320.
G2 X15.35 Y45. I0. J29.65 F639.6
X45. Y74.65 I29.65 J0.
X74.65 Y45. I0. J-29.65
X45. Y15.35 I-29.65 J0.
G0 Z10.
X44.929 Y19.95
G1 Z-.5 F320.
X45.071 F639.6
G3 X53.347 Y21.382 I-.071 J25.05
G1 X36.653
X39.749 Y22.813
X33.371
G2 X30.975 Y24.244 I11.629 J22.187
G1 X37.42
G2 X36.867 Y25.676 I2.718 J1.872
G1 X29.06
G2 X27.469 Y27.107 I15.94 J19.324
G1 X36.99
G2 X37.339 Y27.865 I3.148 J-.991
G1 X37.76 Y28.539
X33.226
G3 X33.614 Y29.09 I-1.996 J1.818
G1 X34.082 Y29.97
X38.655
X39.549 Y31.401
X34.843
X35.605 Y32.833
X41.121
G2 X41.234 Y32.871 I.92 J-2.538
X38.215 Y34.264 I3.766 J12.129
G1 X36.316
G2 X36.128 Y33.818 I-2.572 J.821
G1 X33.614 Y29.09
G2 X31.23 Y27.657 I-2.384 J1.267
X29.381 Y28.39 I0. J2.7
X23.036 Y38.884 I15.619 J16.61
X22.915 Y39.769 I3.179 J.885
X26.215 Y43.069 I3.3 J0.
X26.33 Y43.067 I0. J-3.3
G1 X30.88 Y42.908
G2 X32.613 Y42.197 I-.094 J-2.698
X32.483 Y42.853 I12.387 J2.803
G1 X31.336
Y47.147
X32.483
G3 X32.32 Y45.716 I12.517 J-2.147
G1 X19.96
G3 X19.95 Y45. I25.04 J-.716
X19.96 Y44.284 I25.05 J0.
G1 X32.32
X20.042 Y42.853
X25.041
G3 X23.358 Y41.421 I1.174 J-3.084
G1 X20.207
G3 X20.456 Y39.99 I24.793 J3.579
G1 X22.922
G3 X22.915 Y39.769 I3.293 J-.221
X23.036 Y38.884 I3.3 J0.
X23.129 Y38.559 I21.964 J6.116
G1 X20.792
G3 X21.219 Y37.127 I24.208 J6.441
G1 X23.602
G3 X24.185 Y35.696 I21.398 J7.873
G1 X21.742
G3 X22.367 Y34.264 I23.258 J9.304
G1 X24.886
G3 X25.718 Y32.833 I20.114 J10.736
G1 X23.103
G3 X23.962 Y31.401 I21.897 J12.167
G1 X26.699
G3 X27.855 Y29.97 I18.301 J13.599
G1 X24.96
G3 X26.118 Y28.539 I20.04 J15.03
G1 X29.225
G3 X29.381 Y28.39 I15.775 J16.461
X31.23 Y27.657 I1.849 J1.967
X32.023 Y27.777 I0. J2.7
G1 X36.856 Y26.461
G3 X36.838 Y26.116 I3.282 J-.345
X39.315 Y22.92 I3.3 J0.
X45. Y22.2 I5.685 J22.08
X50.251 Y22.813 I0. J22.8
G1 X56.629
G3 X59.025 Y24.244 I-11.629 J22.187
G1 X53.035
G3 X53.495 Y25.676 I-2.239 J1.51
G1 X60.94
G3 X62.531 Y27.107 I-15.94 J19.324
G1 X53.132
G3 X53.086 Y27.185 I-2.336 J-1.353
G1 X52.24 Y28.539
X57.19
G2 X56.009 Y29.798 I1.733 J2.808
G1 X55.918 Y29.97
X51.345
X50.451 Y31.401
X55.157
X54.395 Y32.833
X48.879
G3 X48.766 Y32.871 I-.92 J-2.538
X51.785 Y34.264 I-3.766 J12.129
G1 X53.684
G3 X53.872 Y33.818 I2.572 J.821
G1 X56.009 Y29.798
G3 X58.923 Y28.047 I2.914 J1.549
X61.279 Y29.037 I0. J3.3
X67.194 Y39.778 I-16.279 J15.963
X67.266 Y40.396 I-2.628 J.618
X64.566 Y43.096 I-2.7 J0.
X64.471 Y43.095 I0. J-2.7
G1 X59.12 Y42.908
G3 X57.387 Y42.197 I.094 J-2.698
X57.517 Y42.853 I-12.387 J2.803
G1 X58.664
Y47.147
X57.517
G2 X57.68 Y45.716 I-12.517 J-2.147
G1 X70.04
G2 X70.05 Y45. I-25.04 J-.716
X70.04 Y44.284 I-25.05 J0.
G1 X57.68
X64.356 Y43.091
X64.471 Y43.095
G2 X64.566 Y43.097 I.095 J-2.699
X65.686 Y42.853 I0. J-2.701
G1 X69.958
G2 X69.793 Y41.421 I-24.958 J2.147
G1 X67.064
G2 X67.266 Y40.396 I-2.498 J-1.025
X67.235 Y39.99 I-2.7 J0.
G1 X69.544
G2 X69.208 Y38.559 I-24.544 J5.01
G1 X66.871
G2 X66.398 Y37.127 I-21.871 J6.441
G1 X68.781
G2 X68.258 Y35.696 I-23.781 J7.873
G1 X65.815
G2 X65.114 Y34.264 I-20.815 J9.304
G1 X67.633
G2 X66.897 Y32.833 I-22.633 J10.736
G1 X64.282
G2 X63.301 Y31.401 I-19.282 J12.167
G1 X66.038
G2 X65.04 Y29.97 I-21.038 J13.599
G1 X62.145
G2 X61.279 Y29.037 I-17.145 J15.03
X60.656 Y28.539 I-2.356 J2.31
G1 X63.882
X69.958 Y47.147
X64.959
G3 X66.642 Y48.579 I-1.174 J3.084
G1 X69.793
G3 X69.544 Y50.01 I-24.793 J-3.579
G1 X67.078
G3 X67.085 Y50.231 I-3.293 J.221
X66.964 Y51.116 I-3.3 J0.
X66.871 Y51.441 I-21.964 J-6.116
G1 X69.208
G3 X68.781 Y52.873 I-24.208 J-6.441
G1 X66.398
G3 X65.815 Y54.304 I-21.398 J-7.873
G1 X68.258
G3 X67.633 Y55.736 I-23.258 J-9.304
G1 X65.114
G3 X64.282 Y57.167 I-20.114 J-10.736
G1 X66.897
G3 X66.038 Y58.599 I-21.897 J-12.167
G1 X63.301
G3 X62.145 Y60.03 I-18.301 J-13.599
G1 X65.04
G3 X63.882 Y61.461 I-20.04 J-15.03
G1 X60.775
X62.531 Y62.893
X53.01
G3 X53.162 Y63.884 I-3.148 J.991
X53.133 Y64.324 I-3.3 J0.
G1 X60.94
G3 X59.025 Y65.756 I-15.94 J-19.324
G1 X52.58
G3 X50.685 Y67.08 I-2.718 J-1.872
X50.251 Y67.187 I-5.685 J-22.08
G1 X56.629
X53.347 Y68.618
X36.653
G2 X44.929 Y70.05 I8.347 J-23.618
G1 X45.071
X39.749 Y67.187
X33.371
G3 X30.975 Y65.756 I11.629 J-22.187
G1 X36.965
G3 X36.505 Y64.324 I2.239 J-1.51
G1 X29.06
G3 X27.469 Y62.893 I15.94 J-19.324
G1 X36.868
G3 X36.914 Y62.815 I2.336 J1.353
G1 X37.76 Y61.461
X32.81
G2 X33.991 Y60.202 I-1.733 J-2.808
G1 X34.082 Y60.03
X38.655
X39.549 Y58.599
X34.843
X35.605 Y57.167
X41.121
G3 X41.234 Y57.129 I.92 J2.538
X38.215 Y55.736 I3.766 J-12.129
G1 X36.316
G3 X36.128 Y56.182 I-2.572 J-.821
G1 X33.991 Y60.202
G3 X31.077 Y61.953 I-2.914 J-1.549
X29.344 Y61.461 I0. J-3.3
G1 X26.118
G3 X24.96 Y60.03 I18.882 J-16.461
G1 X27.855
G3 X26.699 Y58.599 I17.145 J-15.03
G1 X23.962
G3 X23.103 Y57.167 I21.038 J-13.599
G1 X25.718
G3 X24.886 Y55.736 I19.282 J-12.167
G1 X22.367
G3 X21.742 Y54.304 I22.633 J-10.736
G1 X24.185
G3 X23.602 Y52.873 I20.815 J-9.304
G1 X21.219
G3 X20.792 Y51.441 I23.781 J-7.873
G1 X23.129
G3 X22.806 Y50.222 I21.871 J-6.441
X22.765 Y50.01 I2.628 J-.618
G1 X20.456
G3 X20.207 Y48.579 I24.544 J-5.01
G1 X22.936
G3 X24.314 Y47.147 I2.498 J1.025
G1 X20.042
X22.99 Y48.457
G2 X22.734 Y49.604 I2.444 J1.147
X22.806 Y50.222 I2.7 J0.
X28.721 Y60.963 I22.194 J-5.222
X31.077 Y61.953 I2.356 J-2.31
X33.991 Y60.202 I0. J-3.3
G1 X36.128 Y56.182
G2 X36.444 Y54.915 I-2.384 J-1.267
X36.398 Y54.419 I-2.7 J0.
G1 X36.562 Y54.491
G2 X41.234 Y57.129 I8.438 J-9.491
X39.752 Y58.275 I.807 J2.576
G1 X36.914 Y62.815
G2 X36.504 Y64.246 I2.29 J1.431
X38.425 Y66.832 I2.7 J0.
X45. Y67.801 I6.575 J-21.832
X50.685 Y67.08 I0. J-22.801
X53.162 Y63.884 I-.823 J-3.196
X52.661 Y62.135 I-3.3 J0.
G1 X52.24 Y61.461
X56.774
G3 X56.386 Y60.91 I1.996 J-1.818
G1 X55.918 Y60.03
X51.345
X50.451 Y58.599
X55.157
X54.395 Y57.167
X48.879
G2 X48.766 Y57.129 I-.92 J2.538
X51.785 Y55.736 I-3.766 J-12.129
G1 X53.684
G0 Z10.
X45. Y19.65
G1 Z-.5 F320.
G3 X70.35 Y45. I0. J25.35 F639.6
X45. Y70.35 I-25.35 J0.
X19.65 Y45. I0. J-25.35
X45. Y19.65 I25.35 J0.
G0 Z10.
X47.485 Y57.352
G1 Z-.5 F320.
G3 X45. Y57.599 I-2.485 J-12.352 F639.6
X42.515 Y57.352 I0. J-12.599
G2 X42.041 Y57.305 I-.474 J2.353
X40.006 Y58.434 I0. J2.4
G1 X37.169 Y62.974
G2 X36.804 Y64.246 I2.035 J1.272
X38.512 Y66.544 I2.4 J0.
X45. Y67.5 I6.488 J-21.544
X50.61 Y66.789 I0. J-22.5
X52.862 Y63.884 I-.748 J-2.905
X52.406 Y62.294 I-3. J0.
G1 X49.994 Y58.434
G2 X47.959 Y57.306 I-2.035 J1.271
X47.485 Y57.352 I0. J2.399
G0 Z10.
X35.545 Y53.328
G1 Z-.5 F320.
G3 X33.06 Y49.024 I9.455 J-8.328 F639.6
G2 X30.869 Y47.392 I-2.274 J.766
G1 X25.518 Y47.205
G2 X25.434 Y47.204 I-.084 J2.399
X23.034 Y49.604 I0. J2.4
X23.098 Y50.153 I2.4 J0.
X28.935 Y60.753 I21.902 J-5.153
X31.077 Y61.653 I2.142 J-2.1
X33.726 Y60.061 I0. J-3.
G1 X35.863 Y56.042
G2 X36.144 Y54.915 I-2.119 J-1.127
X35.545 Y53.328 I-2.4 J0.
G0 Z10.
X33.06 Y40.976
G1 Z-.5 F320.
G3 X35.545 Y36.672 I11.94 J4.024 F639.6
G2 X36.144 Y35.085 I-1.801 J-1.587
X35.863 Y33.958 I-2.4 J0.
G1 X33.349 Y29.231
G2 X31.23 Y27.957 I-2.119 J1.126
X29.586 Y28.609 I0. J2.4
X23.325 Y38.964 I15.414 J16.391
X23.215 Y39.769 I2.89 J.805
X26.215 Y42.769 I3. J0.
X26.319 Y42.767 I0. J-3.
G1 X30.869 Y42.608
G2 X33.06 Y40.976 I-.083 J-2.398
G0 Z10.
X42.515 Y32.648
G1 Z-.5 F320.
G3 X45. Y32.401 I2.485 J12.352 F639.6
X47.485 Y32.648 I0. J12.599
G2 X47.959 Y32.695 I.474 J-2.353
X49.994 Y31.566 I0. J-2.4
G1 X52.831 Y27.026
G2 X53.196 Y25.754 I-2.035 J-1.272
X51.488 Y23.456 I-2.4 J0.
X45. Y22.5 I-6.488 J21.544
X39.39 Y23.211 I0. J22.5
X37.138 Y26.116 I.748 J2.905
X37.594 Y27.706 I3. J0.
G1 X40.006 Y31.566
G2 X42.041 Y32.694 I2.035 J-1.271
X42.515 Y32.648 I0. J-2.399
G0 Z10.
X45. Y32.6
G1 Z-.5 F320.
G2 X32.6 Y45. I0. J12.4 F639.6
X45. Y57.4 I12.4 J0.
X57.4 Y45. I0. J-12.4
X45. Y32.6 I-12.4 J0.
G0 Z10.
X54.455 Y36.672
G1 Z-.5 F320.
G3 X56.94 Y40.976 I-9.455 J8.328 F639.6
G2 X59.131 Y42.608 I2.274 J-.766
G1 X64.482 Y42.795
G2 X64.566 Y42.796 I.084 J-2.399
X66.966 Y40.396 I0. J-2.4
X66.902 Y39.847 I-2.4 J0.
X61.065 Y29.247 I-21.902 J5.153
X58.923 Y28.347 I-2.142 J2.1
X56.274 Y29.939 I0. J3.
G1 X54.137 Y33.958
G2 X53.856 Y35.085 I2.119 J1.127
X54.455 Y36.672 I2.4 J0.
G0 Z10.
X56.94 Y49.024
G1 Z-.5 F320.
G3 X54.455 Y53.328 I-11.94 J-4.024 F639.6
G2 X53.856 Y54.915 I1.801 J1.587
X54.137 Y56.042 I2.4 J0.
G1 X56.651 Y60.769
G2 X58.77 Y62.043 I2.119 J-1.126
X60.414 Y61.391 I0. J-2.4
X66.675 Y51.036 I-15.414 J-16.391
X66.785 Y50.231 I-2.89 J-.805
X63.785 Y47.231 I-3. J0.
X63.681 Y47.233 I0. J3.
G1 X59.131 Y47.392
G2 X56.94 Y49.024 I.083 J2.398
G0 Z10.
X44.961 Y37.2
G1 Z-.5 F320.
X45.039 F639.6
X45.936 Y38.618
X49.485
G3 X51.017 Y40.036 I-4.485 J6.382
G1 X49.119
G3 X50.388 Y41.455 I-4.119 J4.964
G1 X51.948
G3 X52.504 Y42.873 I-6.948 J3.545
G1 X51.089
G3 X51.411 Y44.291 I-6.089 J2.127
G1 X52.768
G3 X52.8 Y45. I-7.768 J.709
X52.768 Y45.709 I-7.8 J0.
G1 X51.411
G3 X51.089 Y47.127 I-6.411 J-.709
G1 X52.504
G3 X51.948 Y48.545 I-7.504 J-2.127
G1 X50.388
G3 X49.119 Y49.964 I-5.388 J-3.545
G1 X51.017
G3 X49.485 Y51.382 I-6.017 J-4.964
G1 X45.936
G3 X45. Y51.45 I-.936 J-6.382
X44.064 Y51.382 I0. J-6.45
G1 X40.515
G3 X38.983 Y49.964 I4.485 J-6.382
G1 X40.881
G3 X39.612 Y48.545 I4.119 J-4.964
G1 X38.052
X44.961 Y52.8
X45.039
X44.947 Y51.45
X45.
G2 X51.45 Y45. I0. J-6.45
X45. Y38.55 I-6.45 J0.
X44.064 Y38.618 I0. J6.45
G1 X40.515
G2 X38.983 Y40.036 I4.485 J6.382
G1 X40.881
G2 X39.612 Y41.455 I4.119 J4.964
G1 X38.052
G0 Z10.
X37.287 Y42.525
G1 Z-.5 F320.
G3 X45. Y36.9 I7.713 J2.475 F639.6
X53.1 Y45. I0. J8.1
X45. Y53.1 I-8.1 J0.
X37.287 Y47.475 I0. J-8.1
G1 X39.37
G2 X45. Y51.15 I5.63 J-2.475
X51.15 Y45. I0. J-6.15
X45. Y38.85 I-6.15 J0.
X39.37 Y42.525 I0. J6.15
G1 X37.287
G0 Z10.
X37.2 Y47.184
G1 Z-.5 F320.
G3 X36.9 Y45. I7.8 J-2.184 F639.6
X37.2 Y42.816 I8.1 J0.
G1 Y47.184
G0 Z10.
M5
G91 G28 Z0.
G28 X0. Y0. A0.
M30
%


 